packages/webapp/public/images/template-logos/quickbooks.svg

<svg width="62" height="62" viewBox="0 0 62 62" fill="none" xmlns="http://www.w3.org/2000/svg">
<g clip-path="url(#clip0_496_1228)">
<path d="M31 53C43.1503 53 53 43.1503 53 31C53 18.8497 43.1503 9 31 9C18.8497 9 9 18.8497 9 31C9 43.1503 18.8497 53 31 53Z" fill="#2CA01C"/>
<path d="M15.1112 31.0023C15.1112 33.2714 16.0126 35.4475 17.6171 37.052C19.2215 38.6565 21.3977 39.5579 23.6668 39.5579H24.889V36.3801H23.6668C22.2405 36.3801 20.8726 35.8135 19.8641 34.805C18.8556 33.7964 18.289 32.4286 18.289 31.0023C18.289 29.576 18.8556 28.2082 19.8641 27.1996C20.8726 26.1911 22.2405 25.6245 23.6668 25.6245H26.6001V42.2467C26.6001 42.6641 26.6823 43.0773 26.842 43.4628C27.0017 43.8484 27.2358 44.1987 27.5308 44.4938C27.8259 44.7889 28.1762 45.0229 28.5618 45.1826C28.9473 45.3423 29.3606 45.4245 29.7779 45.4245V22.4467H23.6668C21.3977 22.4467 19.2215 23.3481 17.6171 24.9526C16.0126 26.5571 15.1112 28.7332 15.1112 31.0023ZM38.3334 22.4467H37.1112V25.6245H38.3334C39.7597 25.6245 41.1276 26.1911 42.1361 27.1996C43.1446 28.2082 43.7112 29.576 43.7112 31.0023C43.7112 32.4286 43.1446 33.7964 42.1361 34.805C41.1276 35.8135 39.7597 36.3801 38.3334 36.3801H35.4001V19.7579C35.4001 18.9151 35.0653 18.1068 34.4693 17.5108C33.8734 16.9149 33.0651 16.5801 32.2223 16.5801V39.5579H38.3334C39.457 39.5579 40.5695 39.3366 41.6075 38.9066C42.6455 38.4766 43.5887 37.8465 44.3831 37.052C45.1776 36.2575 45.8078 35.3144 46.2377 34.2764C46.6677 33.2384 46.889 32.1258 46.889 31.0023C46.889 29.8788 46.6677 28.7662 46.2377 27.7282C45.8078 26.6902 45.1776 25.7471 44.3831 24.9526C43.5887 24.1582 42.6455 23.528 41.6075 23.098C40.5695 22.668 39.457 22.4467 38.3334 22.4467Z" fill="white"/>
</g>
<defs>
<clipPath id="clip0_496_1228">
<rect width="44" height="44" fill="white" transform="translate(9 9)"/>
</clipPath>
</defs>
</svg>

<svg xmlns="http://www.w3.org/2000/svg" width="62" height="62" fill="none"><g clip-path="url(#A)"><path d="M31 53c12.15 0 22-9.85 22-22S43.15 9 31 9 9 18.85 9 31s9.85 22 22 22z" fill="#2ca01c"/><path d="M15.111 31.002c0 2.269.901 4.445 2.506 6.05s3.781 2.506 6.05 2.506h1.222V36.38h-1.222a5.38 5.38 0 0 1-5.378-5.378 5.38 5.38 0 0 1 5.378-5.378H26.6v16.622c0 .417.082.831.242 1.216a3.18 3.18 0 0 0 .689 1.031c.295.295.645.529 1.031.689a3.18 3.18 0 0 0 1.216.242V22.447h-6.111c-2.269 0-4.445.901-6.05 2.506s-2.506 3.781-2.506 6.05zm23.222-8.556h-1.222v3.178h1.222a5.38 5.38 0 0 1 5.378 5.378 5.38 5.38 0 0 1-5.378 5.378H35.4V19.758a3.18 3.18 0 0 0-3.178-3.178v22.978h6.111c1.124 0 2.236-.221 3.274-.651s1.981-1.06 2.776-1.855 1.425-1.738 1.855-2.776.651-2.151.651-3.274-.221-2.236-.651-3.274-1.06-1.981-1.855-2.776-1.738-1.425-2.776-1.855-2.151-.651-3.274-.651z" fill="#fff"/></g><defs><clipPath id="A"><path fill="#fff" transform="translate(9 9)" d="M0 0h44v44H0z"/></clipPath></defs></svg>
